data/icons/lan.svg

<svg width="16" height="16" viewBox="0 0 16 16" fill="none" xmlns="http://www.w3.org/2000/svg">
    <path
        d="M15.5 8.5V7.5H8.5V6H10.25C10.4488 5.99978 10.6395 5.92069 10.7801 5.78008C10.9207 5.63948 10.9998 5.44884 11 5.25V1.25C10.9998 1.05116 10.9207 0.86052 10.7801 0.719917C10.6395 0.579313 10.4488 0.500223 10.25 0.5H5.75C5.55116 0.500223 5.36052 0.579313 5.21992 0.719917C5.07931 0.86052 5.00022 1.05116 5 1.25V5.25C5.00022 5.44884 5.07931 5.63948 5.21992 5.78008C5.36052 5.92069 5.55116 5.99978 5.75 6H7.5V7.5H0.5V8.5H3V10H1.29347C1.09463 10.0002 0.904011 10.0793 0.763413 10.2199C0.622814 10.3605 0.543717 10.5512 0.543469 10.75V14.75C0.543717 14.9488 0.622814 15.1395 0.763413 15.2801C0.904011 15.4207 1.09463 15.4998 1.29347 15.5H5.75C5.94884 15.4998 6.13948 15.4207 6.28008 15.2801C6.42069 15.1395 6.49978 14.9488 6.5 14.75V10.75C6.49978 10.5512 6.42069 10.3605 6.28008 10.2199C6.13948 10.0793 5.94884 10.0002 5.75 10H4V8.5H12V10H10.25C10.0512 10.0002 9.86052 10.0793 9.71992 10.2199C9.57931 10.3605 9.50022 10.5512 9.5 10.75V14.75C9.50022 14.9488 9.57931 15.1395 9.71992 15.2801C9.86052 15.4207 10.0512 15.4998 10.25 15.5H14.75C14.9488 15.4998 15.1395 15.4207 15.2801 15.2801C15.4207 15.1395 15.4998 14.9488 15.5 14.75V10.75C15.4998 10.5512 15.4207 10.3605 15.2801 10.2199C15.1395 10.0793 14.9488 10.0002 14.75 10H13V8.5H15.5ZM6 1.5H10V5H6V1.5ZM5.5 14.5H1.54347V11H5.5V14.5ZM14.5 14.5H10.5V11H14.5V14.5Z"
        fill="#087E8B" />
</svg>

<svg xmlns="http://www.w3.org/2000/svg" width="16" height="16" fill="none" viewBox="0 0 16 16"><path fill="#087e8b" d="M15.5 8.5v-1h-7V6h1.75a.75.75 0 0 0 .75-.75v-4a.75.75 0 0 0-.75-.75h-4.5a.75.75 0 0 0-.75.75v4a.75.75 0 0 0 .75.75H7.5v1.5h-7v1H3V10H1.293a.75.75 0 0 0-.75.75v4a.75.75 0 0 0 .75.75H5.75a.75.75 0 0 0 .75-.75v-4a.75.75 0 0 0-.75-.75H4V8.5h8V10h-1.75a.75.75 0 0 0-.75.75v4a.75.75 0 0 0 .75.75h4.5a.75.75 0 0 0 .75-.75v-4a.75.75 0 0 0-.75-.75H13V8.5zM6 1.5h4V5H6zm-.5 13H1.543V11H5.5zm9 0h-4V11h4z"/></svg>
